dist/svg/u1FA97.svg

<?xml version="1.0" encoding="UTF-8"?><svg id="a" xmlns="http://www.w3.org/2000/svg" viewBox="0 0 40 40"><g><path d="M5.443,9.111h7.964v26.313H5.443c-.552,0-1.001-.448-1.001-1.001V10.112c0-.552,.448-1.001,1.001-1.001Z" transform="translate(-5.047 2.767) rotate(-13.779)" fill="#e5e9ee"/><rect x="4.81" y="11.672" width="5.577" height="1.856" transform="translate(-2.782 2.173) rotate(-13.779)" fill="#333d4b"/><rect x="5.722" y="15.39" width="5.577" height="1.856" transform="translate(-3.642 2.497) rotate(-13.779)" fill="#333d4b"/><rect x="7.531" y="22.766" width="5.577" height="1.856" transform="translate(-5.346 3.14) rotate(-13.779)" fill="#333d4b"/><rect x="8.443" y="26.483" width="5.577" height="1.856" transform="translate(-6.206 3.464) rotate(-13.779)" fill="#333d4b"/><rect x="9.354" y="30.201" width="5.577" height="1.856" transform="translate(-7.065 3.788) rotate(-13.779)" fill="#333d4b"/><path d="M21.04,33.536l1.681-.956c.191-.108,.424-.111,.617-.007l1.846,.999c.363,.196,.813,0,.917-.399l6.537-25.065c.049-.189,.009-.39-.11-.546l-1.593-2.088c-.192-.252-.541-.324-.818-.168l-1.988,1.122c-.26,.147-.588,.093-.787-.131l-1.185-1.33c-.225-.253-.609-.285-.873-.072l-1.307,1.051c-.227,.183-.549,.187-.781,.012l-1.481-1.118c-.247-.187-.593-.168-.819,.044l-1.607,1.513c-.23,.216-.584,.231-.831,.035l-1.207-.96c-.248-.197-.603-.182-.833,.036l-1.968,1.863c-.164,.155-.233,.386-.182,.605l5.839,25.152c.096,.414,.564,.619,.933,.409Z" fill="#333d4b"/><rect x="11.455" y="5.888" width="6.299" height="29.855" rx=".556" ry=".556" transform="translate(-4.538 4.078) rotate(-13.779)" fill="#d12030"/><rect x="28.712" y="5.888" width="6.299" height="29.855" rx=".556" ry=".556" transform="translate(57.848 48.621) rotate(-166.221)" fill="#d12030"/><path d="M32.346,29.824l-.969-1.451,1.911-1.276c3.483-2.326,4.564-6.986,2.462-10.607l-.828-1.427,1.51-.877,.828,1.427c2.564,4.417,1.245,10.1-3.002,12.936l-1.912,1.276Z" fill="#d12030"/></g><rect x="0" width="40" height="40" fill="none"/></svg>

<svg id="Layer_1" data-name="Layer 1" xmlns="http://www.w3.org/2000/svg" viewBox="0 0 40 40"><defs><style>.cls-1{fill:#e5e9ee;}.cls-2{fill:#333d4b;}.cls-3{fill:#d12030;}.cls-4{fill:none;}</style></defs><path class="cls-1" d="M5.443,9.111h7.964a0,0,0,0,1,0,0V35.424a0,0,0,0,1,0,0H5.443a1,1,0,0,1-1-1V10.112a1,1,0,0,1,1-1Z" transform="translate(-5.047 2.767) rotate(-13.779)"/><rect class="cls-2" x="4.81" y="11.672" width="5.577" height="1.856" transform="translate(-2.782 2.173) rotate(-13.779)"/><rect class="cls-2" x="5.722" y="15.39" width="5.577" height="1.856" transform="translate(-3.642 2.497) rotate(-13.779)"/><rect class="cls-2" x="7.531" y="22.766" width="5.577" height="1.856" transform="translate(-5.346 3.14) rotate(-13.779)"/><rect class="cls-2" x="8.443" y="26.483" width="5.577" height="1.856" transform="translate(-6.206 3.464) rotate(-13.779)"/><rect class="cls-2" x="9.354" y="30.201" width="5.577" height="1.856" transform="translate(-7.065 3.788) rotate(-13.779)"/><path class="cls-2" d="M21.04,33.536l1.68-.956a.636.636,0,0,1,.617-.007l1.846,1a.635.635,0,0,0,.917-.4L32.637,8.108a.636.636,0,0,0-.11-.546L30.935,5.474a.636.636,0,0,0-.818-.168L28.129,6.428a.635.635,0,0,1-.787-.131l-1.185-1.33a.637.637,0,0,0-.873-.072L23.977,5.946a.634.634,0,0,1-.781.012L21.715,4.84a.636.636,0,0,0-.819.044L19.289,6.4a.635.635,0,0,1-.831.034l-1.207-.96a.637.637,0,0,0-.833.036L14.45,7.37a.634.634,0,0,0-.182.6l5.838,25.152A.637.637,0,0,0,21.04,33.536Z"/><rect class="cls-3" x="11.455" y="5.888" width="6.299" height="29.855" rx="0.556" transform="translate(-4.538 4.078) rotate(-13.779)"/><rect class="cls-3" x="28.712" y="5.888" width="6.299" height="29.855" rx="0.556" transform="translate(57.848 48.621) rotate(-166.221)"/><path class="cls-3" d="M32.346,29.824l-.969-1.452L33.288,27.1A7.969,7.969,0,0,0,35.75,16.489l-.828-1.427,1.51-.877.828,1.427a9.718,9.718,0,0,1-3,12.936Z"/><rect class="cls-4" width="40" height="40"/></svg>
